X: 1
T: Little Boats Of Newfoundland, The
M: 4/4
L: 1/8
R: barndance
K: Amaj
E3F | EC2A,4F | E2CA,4A | A3BAF3 | D8|
E2B,B,4C | D2B,4zE | F2F4ED | C3z4F|
E(C3C2)EF | E(C3C2)AA | A2B2A3F | D6CD|
EE3E3F| ED2(B,3B,2|B,2)DDC3B, | A,8 | z4 ||
